X:1
T:London Pride - Oddington
R: Rag Morris
M:4/4
L:1/8
S:Bacon (Benfield MS, 1925)
Z: Mackin and the internet.
W: Morris Formula (A2B)3
W: Yeah, it's in a weird Key, enjoy.
K:Ddor
[P:A]A2 AB c2A2|GFED C2 DE|F2A2 AGFE|[1 DEFE DEFE :|[2 D4D4||
P:B
|:A2 AB c2A2|dcBA G2G2|A2 AB c2A2|d4 A4|
A2 AB c2A2|GFED C2 DE|F2A2 AGFE|D4 D4|:|
